mj/qys/gl-mahjongtile-svg/d-7.svg

<svg xmlns="http://www.w3.org/2000/svg" viewBox="30 -115 580 830"><g><path d="M427 49q-12 -5 -25 -18v-10l8 -5q17 4 29 21l-3 9zM267 49q-12 -5 -25 -18v-10l8 -5q17 4 29 21l-3 9zM427 209q-12 -5 -25 -18v-10l8 -5q17 4 29 21l-3 9zM267 209q-12 -5 -25 -18v-10l8 -5q17 4 29 21l-3 9zM427 369q-12 -5 -25 -18v-10l8 -5q17 4 29 21l-3 9zM267 369 q-12 -5 -25 -18v-10l8 -5q17 4 29 21l-3 9zM427 529q-12 -5 -25 -18v-10l8 -5q17 4 29 21l-3 9zM267 529q-12 -5 -25 -18v-10l8 -5q17 4 29 21l-3 9zM269 460q37 -14 51 -51q14 37 51 51q-37 14 -51 51q-14 -37 -51 -51zM202 530q10 2 13 10q0 6 2.5 11t3.5 11l-6 8h-9 q-11 -13 -11 -30v-4zM248 564l7 1l6 8l-3 8q-8 4 -18 4t-18 -4l-3 -8l6 -8l7 -1q2 1 8 1t8 -1zM259 562q1 -6 3.5 -11t2.5 -11l4 -7l9 -3l7 6v4q0 17 -11 30h-9zM233 516q-8 3 -14 10l-6 3l-9 -3l-3 -9q12 -17 29 -21l8 5v10zM185 540q0 22 16.5 38.5t38.5 16.5t38.5 -16.5 t16.5 -38.5t-16.5 -38.5t-38.5 -16.5t-38.5 16.5t-16.5 38.5zM170 540q0 -29 20.5 -49.5t49.5 -20.5t49.5 20.5t20.5 49.5t-20.5 49.5t-49.5 20.5t-49.5 -20.5t-20.5 -49.5zM225 540q0 -6 4.5 -10.5t10.5 -4.5t10.5 4.5t4.5 10.5t-4.5 10.5t-10.5 4.5t-10.5 -4.5t-4.5 -10.5 zM235 540q0 5 5 5t5 -5t-5 -5t-5 5zM362 530q10 2 13 10q0 6 2.5 11t3.5 11l-6 8h-9q-11 -13 -11 -30v-4zM408 564l7 1l6 8l-3 8q-8 4 -18 4t-18 -4l-3 -8l6 -8l7 -1q2 1 8 1t8 -1zM419 562q1 -6 3.5 -11t2.5 -11l4 -7l9 -3l7 6v4q0 17 -11 30h-9zM393 516q-8 3 -14 10l-6 3 l-9 -3l-3 -9q12 -17 29 -21l8 5v10zM345 540q0 22 16.5 38.5t38.5 16.5t38.5 -16.5t16.5 -38.5t-16.5 -38.5t-38.5 -16.5t-38.5 16.5t-16.5 38.5zM330 540q0 -29 20.5 -49.5t49.5 -20.5t49.5 20.5t20.5 49.5t-20.5 49.5t-49.5 20.5t-49.5 -20.5t-20.5 -49.5zM385 540 q0 -6 4.5 -10.5t10.5 -4.5t10.5 4.5t4.5 10.5t-4.5 10.5t-10.5 4.5t-10.5 -4.5t-4.5 -10.5zM395 540q0 5 5 5t5 -5t-5 -5t-5 5zM202 370q10 2 13 10q0 6 2.5 11t3.5 11l-6 8h-9q-11 -13 -11 -30v-4zM248 404l7 1l6 8l-3 8q-8 4 -18 4t-18 -4l-3 -8l6 -8l7 -1q2 1 8 1t8 -1z M259 402q1 -6 3.5 -11t2.5 -11l4 -7l9 -3l7 6v4q0 17 -11 30h-9zM233 356q-8 3 -14 10l-6 3l-9 -3l-3 -9q12 -17 29 -21l8 5v10zM185 380q0 22 16.5 38.5t38.5 16.5t38.5 -16.5t16.5 -38.5t-16.5 -38.5t-38.5 -16.5t-38.5 16.5t-16.5 38.5zM170 380q0 -29 20.5 -49.5 t49.5 -20.5t49.5 20.5t20.5 49.5t-20.5 49.5t-49.5 20.5t-49.5 -20.5t-20.5 -49.5zM610 655v-710q0 -25 -17.5 -42.5t-42.5 -17.5h-460q-25 0 -42.5 17.5t-17.5 42.5v710q0 25 17.5 42.5t42.5 17.5h460q25 0 42.5 -17.5t17.5 -42.5zM550 685h-460q-13 0 -21.5 -8.5 t-8.5 -21.5v-710q0 -13 8.5 -21.5t21.5 -8.5h460q13 0 21.5 8.5t8.5 21.5v710q0 13 -8.5 21.5t-21.5 8.5zM225 380q0 -6 4.5 -10.5t10.5 -4.5t10.5 4.5t4.5 10.5t-4.5 10.5t-10.5 4.5t-10.5 -4.5t-4.5 -10.5zM235 380q0 5 5 5t5 -5t-5 -5t-5 5zM362 370q10 2 13 10 q0 6 2.5 11t3.5 11l-6 8h-9q-11 -13 -11 -30v-4zM408 404l7 1l6 8l-3 8q-8 4 -18 4t-18 -4l-3 -8l6 -8l7 -1q2 1 8 1t8 -1zM419 402q1 -6 3.5 -11t2.5 -11l4 -7l9 -3l7 6v4q0 17 -11 30h-9zM393 356q-8 3 -14 10l-6 3l-9 -3l-3 -9q12 -17 29 -21l8 5v10zM345 380 q0 22 16.5 38.5t38.5 16.5t38.5 -16.5t16.5 -38.5t-16.5 -38.5t-38.5 -16.5t-38.5 16.5t-16.5 38.5zM330 380q0 -29 20.5 -49.5t49.5 -20.5t49.5 20.5t20.5 49.5t-20.5 49.5t-49.5 20.5t-49.5 -20.5t-20.5 -49.5zM385 380q0 -6 4.5 -10.5t10.5 -4.5t10.5 4.5t4.5 10.5 t-4.5 10.5t-10.5 4.5t-10.5 -4.5t-4.5 -10.5zM395 380q0 5 5 5t5 -5t-5 -5t-5 5zM269 140q37 -14 51 -51q14 37 51 51q-37 14 -51 51q-14 -37 -51 -51zM202 210q10 2 13 10q0 6 2.5 11t3.5 11l-6 8h-9q-11 -13 -11 -30v-4zM248 244l7 1l6 8l-3 8q-8 4 -18 4t-18 -4l-3 -8 l6 -8l7 -1q2 1 8 1t8 -1zM259 242q1 -6 3.5 -11t2.5 -11l4 -7l9 -3l7 6v4q0 17 -11 30h-9zM233 196q-8 3 -14 10l-6 3l-9 -3l-3 -9q12 -17 29 -21l8 5v10zM185 220q0 22 16.5 38.5t38.5 16.5t38.5 -16.5t16.5 -38.5t-16.5 -38.5t-38.5 -16.5t-38.5 16.5t-16.5 38.5zM170 220 q0 -29 20.5 -49.5t49.5 -20.5t49.5 20.5t20.5 49.5t-20.5 49.5t-49.5 20.5t-49.5 -20.5t-20.5 -49.5zM225 220q0 -6 4.5 -10.5t10.5 -4.5t10.5 4.5t4.5 10.5t-4.5 10.5t-10.5 4.5t-10.5 -4.5t-4.5 -10.5zM235 220q0 5 5 5t5 -5t-5 -5t-5 5zM362 210q10 2 13 10q0 6 2.5 11 t3.5 11l-6 8h-9q-11 -13 -11 -30v-4zM408 244l7 1l6 8l-3 8q-8 4 -18 4t-18 -4l-3 -8l6 -8l7 -1q2 1 8 1t8 -1zM419 242q1 -6 3.5 -11t2.5 -11l4 -7l9 -3l7 6v4q0 17 -11 30h-9zM393 196q-8 3 -14 10l-6 3l-9 -3l-3 -9q12 -17 29 -21l8 5v10zM345 220q0 22 16.5 38.5 t38.5 16.5t38.5 -16.5t16.5 -38.5t-16.5 -38.5t-38.5 -16.5t-38.5 16.5t-16.5 38.5zM330 220q0 -29 20.5 -49.5t49.5 -20.5t49.5 20.5t20.5 49.5t-20.5 49.5t-49.5 20.5t-49.5 -20.5t-20.5 -49.5zM385 220q0 -6 4.5 -10.5t10.5 -4.5t10.5 4.5t4.5 10.5t-4.5 10.5t-10.5 4.5 t-10.5 -4.5t-4.5 -10.5zM395 220q0 5 5 5t5 -5t-5 -5t-5 5zM202 50q10 2 13 10q0 6 2.5 11t3.5 11l-6 8h-9q-11 -13 -11 -30v-4zM248 84l7 1l6 8l-3 8q-8 4 -18 4t-18 -4l-3 -8l6 -8l7 -1q2 1 8 1t8 -1zM259 82q1 -6 3.5 -11t2.5 -11l4 -7l9 -3l7 6v4q0 17 -11 30h-9z M233 36q-8 3 -14 10l-6 3l-9 -3l-3 -9q12 -17 29 -21l8 5v10zM185 60q0 22 16.5 38.5t38.5 16.5t38.5 -16.5t16.5 -38.5t-16.5 -38.5t-38.5 -16.5t-38.5 16.5t-16.5 38.5zM170 60q0 -29 20.5 -49.5t49.5 -20.5t49.5 20.5t20.5 49.5t-20.5 49.5t-49.5 20.5t-49.5 -20.5 t-20.5 -49.5zM225 60q0 -6 4.5 -10.5t10.5 -4.5t10.5 4.5t4.5 10.5t-4.5 10.5t-10.5 4.5t-10.5 -4.5t-4.5 -10.5zM235 60q0 5 5 5t5 -5t-5 -5t-5 5zM362 50q10 2 13 10q0 6 2.5 11t3.5 11l-6 8h-9q-11 -13 -11 -30v-4zM408 84l7 1l6 8l-3 8q-8 4 -18 4t-18 -4l-3 -8l6 -8 l7 -1q2 1 8 1t8 -1zM419 82q1 -6 3.5 -11t2.5 -11l4 -7l9 -3l7 6v4q0 17 -11 30h-9zM393 36q-8 3 -14 10l-6 3l-9 -3l-3 -9q12 -17 29 -21l8 5v10zM345 60q0 22 16.5 38.5t38.5 16.5t38.5 -16.5t16.5 -38.5t-16.5 -38.5t-38.5 -16.5t-38.5 16.5t-16.5 38.5zM330 60 q0 -29 20.5 -49.5t49.5 -20.5t49.5 20.5t20.5 49.5t-20.5 49.5t-49.5 20.5t-49.5 -20.5t-20.5 -49.5zM385 60q0 -6 4.5 -10.5t10.5 -4.5t10.5 4.5t4.5 10.5t-4.5 10.5t-10.5 4.5t-10.5 -4.5t-4.5 -10.5zM395 60q0 5 5 5t5 -5t-5 -5t-5 5zM155 540q0 35 25 60t60 25 q27 0 49 -15.5t31 -40.5q9 25 31 40.5t49 15.5q35 0 60 -25t25 -60q0 -27 -15.5 -49t-40.5 -31q25 -9 40.5 -31t15.5 -49t-15.5 -49t-40.5 -31q25 -9 40.5 -31t15.5 -49t-15.5 -49t-40.5 -31q25 -9 40.5 -31t15.5 -49q0 -35 -25 -60t-60 -25q-27 0 -49 15.5t-31 40.5 q-9 -25 -31 -40.5t-49 -15.5q-35 0 -60 25t-25 60q0 27 15.5 49t40.5 31q-25 9 -40.5 31t-15.5 49t15.5 49t40.5 31q-25 9 -40.5 31t-15.5 49t15.5 49t40.5 31q-25 9 -40.5 31t-15.5 49zM371 300q-37 14 -51 51q-14 -37 -51 -51q37 -14 51 -51q14 37 51 51z" /></g></svg>

<?xml version="1.0" encoding="UTF-8" standalone="no"?>
<svg
   xmlns:dc="http://purl.org/dc/elements/1.1/"
   xmlns:cc="http://creativecommons.org/ns#"
   xmlns:rdf="http://www.w3.org/1999/02/22-rdf-syntax-ns#"
   xmlns:svg="http://www.w3.org/2000/svg"
   xmlns="http://www.w3.org/2000/svg"
   xmlns:sodipodi="http://sodipodi.sourceforge.net/DTD/sodipodi-0.dtd"
   xmlns:inkscape="http://www.inkscape.org/namespaces/inkscape"
   inkscape:version="1.0rc1 (09960d6f05, 2020-04-09)"
   sodipodi:docname="d-7.svg"
   id="svg6"
   version="1.1"
   viewBox="30 -115 580 830">
  <metadata
     id="metadata12">
    <rdf:RDF>
      <cc:Work
         rdf:about="">
        <dc:format>image/svg+xml</dc:format>
        <dc:type
           rdf:resource="http://purl.org/dc/dcmitype/StillImage" />
      </cc:Work>
    </rdf:RDF>
  </metadata>
  <defs
     id="defs10" />
  <sodipodi:namedview
     inkscape:current-layer="svg6"
     inkscape:window-maximized="1"
     inkscape:window-y="-6"
     inkscape:window-x="-6"
     inkscape:cy="415"
     inkscape:cx="290"
     inkscape:zoom="0.29879518"
     showgrid="false"
     id="namedview8"
     inkscape:window-height="698"
     inkscape:window-width="1080"
     inkscape:pageshadow="2"
     inkscape:pageopacity="0"
     guidetolerance="10"
     gridtolerance="10"
     objecttolerance="10"
     borderopacity="1"
     bordercolor="#666666"
     pagecolor="#ffffff" />
  <path
     d="M 610,655 V -55 Q 610,-80 592.5,-97.5 575,-115 550,-115 H 90 Q 65,-115 47.5,-97.5 30,-80 30,-55 v 710 q 0,25 17.5,42.5 Q 65,715 90,715 h 460 q 25,0 42.5,-17.5 Q 610,680 610,655 Z m -60,30 H 90 Q 77,685 68.5,676.5 60,668 60,655 V -55 Q 60,-68 68.5,-76.5 77,-85 90,-85 h 460 q 13,0 21.5,8.5 8.5,8.5 8.5,21.5 v 710 q 0,13 -8.5,21.5 Q 563,685 550,685 Z"
     style="fill:#999999;stroke:none;stroke-opacity:1;fill-opacity:1"
     id="path900" />
  <path
     d="M 427,49 Q 415,44 402,31 V 21 l 8,-5 q 17,4 29,21 l -3,9 z M 267,49 Q 255,44 242,31 V 21 l 8,-5 q 17,4 29,21 l -3,9 z m 160,160 q -12,-5 -25,-18 v -10 l 8,-5 q 17,4 29,21 l -3,9 z m -160,0 q -12,-5 -25,-18 v -10 l 8,-5 q 17,4 29,21 l -3,9 z m 160,160 q -12,-5 -25,-18 v -10 l 8,-5 q 17,4 29,21 l -3,9 z m -160,0 q -12,-5 -25,-18 v -10 l 8,-5 q 17,4 29,21 l -3,9 z m 160,160 q -12,-5 -25,-18 v -10 l 8,-5 q 17,4 29,21 l -3,9 z m -160,0 q -12,-5 -25,-18 v -10 l 8,-5 q 17,4 29,21 l -3,9 z m 2,-69 q 37,-14 51,-51 14,37 51,51 -37,14 -51,51 -14,-37 -51,-51 z m -67,70 q 10,2 13,10 0,6 2.5,11 2.5,5 3.5,11 l -6,8 h -9 q -11,-13 -11,-30 v -4 z m 46,34 7,1 6,8 -3,8 q -8,4 -18,4 -10,0 -18,-4 l -3,-8 6,-8 7,-1 q 2,1 8,1 6,0 8,-1 z m 11,-2 q 1,-6 3.5,-11 2.5,-5 2.5,-11 l 4,-7 9,-3 7,6 v 4 q 0,17 -11,30 h -9 z m -26,-46 q -8,3 -14,10 l -6,3 -9,-3 -3,-9 q 12,-17 29,-21 l 8,5 v 10 z m -48,24 q 0,22 16.5,38.5 Q 218,595 240,595 262,595 278.5,578.5 295,562 295,540 295,518 278.5,501.5 262,485 240,485 218,485 201.5,501.5 185,518 185,540 Z m -15,0 q 0,-29 20.5,-49.5 Q 211,470 240,470 q 29,0 49.5,20.5 Q 310,511 310,540 310,569 289.5,589.5 269,610 240,610 211,610 190.5,589.5 170,569 170,540 Z m 55,0 q 0,-6 4.5,-10.5 4.5,-4.5 10.5,-4.5 6,0 10.5,4.5 4.5,4.5 4.5,10.5 0,6 -4.5,10.5 -4.5,4.5 -10.5,4.5 -6,0 -10.5,-4.5 Q 225,546 225,540 Z m 10,0 q 0,5 5,5 5,0 5,-5 0,-5 -5,-5 -5,0 -5,5 z m 127,-10 q 10,2 13,10 0,6 2.5,11 2.5,5 3.5,11 l -6,8 h -9 q -11,-13 -11,-30 v -4 z m 46,34 7,1 6,8 -3,8 q -8,4 -18,4 -10,0 -18,-4 l -3,-8 6,-8 7,-1 q 2,1 8,1 6,0 8,-1 z m 11,-2 q 1,-6 3.5,-11 2.5,-5 2.5,-11 l 4,-7 9,-3 7,6 v 4 q 0,17 -11,30 h -9 z m -26,-46 q -8,3 -14,10 l -6,3 -9,-3 -3,-9 q 12,-17 29,-21 l 8,5 v 10 z m -48,24 q 0,22 16.5,38.5 Q 378,595 400,595 422,595 438.5,578.5 455,562 455,540 455,518 438.5,501.5 422,485 400,485 378,485 361.5,501.5 345,518 345,540 Z m -15,0 q 0,-29 20.5,-49.5 Q 371,470 400,470 q 29,0 49.5,20.5 Q 470,511 470,540 470,569 449.5,589.5 429,610 400,610 371,610 350.5,589.5 330,569 330,540 Z m 55,0 q 0,-6 4.5,-10.5 4.5,-4.5 10.5,-4.5 6,0 10.5,4.5 4.5,4.5 4.5,10.5 0,6 -4.5,10.5 -4.5,4.5 -10.5,4.5 -6,0 -10.5,-4.5 Q 385,546 385,540 Z m 10,0 q 0,5 5,5 5,0 5,-5 0,-5 -5,-5 -5,0 -5,5 z M 202,370 q 10,2 13,10 0,6 2.5,11 2.5,5 3.5,11 l -6,8 h -9 q -11,-13 -11,-30 v -4 z m 46,34 7,1 6,8 -3,8 q -8,4 -18,4 -10,0 -18,-4 l -3,-8 6,-8 7,-1 q 2,1 8,1 6,0 8,-1 z m 11,-2 q 1,-6 3.5,-11 2.5,-5 2.5,-11 l 4,-7 9,-3 7,6 v 4 q 0,17 -11,30 h -9 z m -26,-46 q -8,3 -14,10 l -6,3 -9,-3 -3,-9 q 12,-17 29,-21 l 8,5 v 10 z m -48,24 q 0,22 16.5,38.5 Q 218,435 240,435 262,435 278.5,418.5 295,402 295,380 295,358 278.5,341.5 262,325 240,325 218,325 201.5,341.5 185,358 185,380 Z m -15,0 q 0,-29 20.5,-49.5 Q 211,310 240,310 q 29,0 49.5,20.5 Q 310,351 310,380 310,409 289.5,429.5 269,450 240,450 211,450 190.5,429.5 170,409 170,380 Z m 55,0 q 0,-6 4.5,-10.5 4.5,-4.5 10.5,-4.5 6,0 10.5,4.5 4.5,4.5 4.5,10.5 0,6 -4.5,10.5 -4.5,4.5 -10.5,4.5 -6,0 -10.5,-4.5 Q 225,386 225,380 Z m 10,0 q 0,5 5,5 5,0 5,-5 0,-5 -5,-5 -5,0 -5,5 z m 127,-10 q 10,2 13,10 0,6 2.5,11 2.5,5 3.5,11 l -6,8 h -9 q -11,-13 -11,-30 v -4 z m 46,34 7,1 6,8 -3,8 q -8,4 -18,4 -10,0 -18,-4 l -3,-8 6,-8 7,-1 q 2,1 8,1 6,0 8,-1 z m 11,-2 q 1,-6 3.5,-11 2.5,-5 2.5,-11 l 4,-7 9,-3 7,6 v 4 q 0,17 -11,30 h -9 z m -26,-46 q -8,3 -14,10 l -6,3 -9,-3 -3,-9 q 12,-17 29,-21 l 8,5 v 10 z m -48,24 q 0,22 16.5,38.5 Q 378,435 400,435 422,435 438.5,418.5 455,402 455,380 455,358 438.5,341.5 422,325 400,325 378,325 361.5,341.5 345,358 345,380 Z m -15,0 q 0,-29 20.5,-49.5 Q 371,310 400,310 q 29,0 49.5,20.5 Q 470,351 470,380 470,409 449.5,429.5 429,450 400,450 371,450 350.5,429.5 330,409 330,380 Z m 55,0 q 0,-6 4.5,-10.5 4.5,-4.5 10.5,-4.5 6,0 10.5,4.5 4.5,4.5 4.5,10.5 0,6 -4.5,10.5 -4.5,4.5 -10.5,4.5 -6,0 -10.5,-4.5 Q 385,386 385,380 Z m 10,0 q 0,5 5,5 5,0 5,-5 0,-5 -5,-5 -5,0 -5,5 z M 269,140 q 37,-14 51,-51 14,37 51,51 -37,14 -51,51 -14,-37 -51,-51 z m -67,70 q 10,2 13,10 0,6 2.5,11 2.5,5 3.5,11 l -6,8 h -9 q -11,-13 -11,-30 v -4 z m 46,34 7,1 6,8 -3,8 q -8,4 -18,4 -10,0 -18,-4 l -3,-8 6,-8 7,-1 q 2,1 8,1 6,0 8,-1 z m 11,-2 q 1,-6 3.5,-11 2.5,-5 2.5,-11 l 4,-7 9,-3 7,6 v 4 q 0,17 -11,30 h -9 z m -26,-46 q -8,3 -14,10 l -6,3 -9,-3 -3,-9 q 12,-17 29,-21 l 8,5 v 10 z m -48,24 q 0,22 16.5,38.5 Q 218,275 240,275 262,275 278.5,258.5 295,242 295,220 295,198 278.5,181.5 262,165 240,165 218,165 201.5,181.5 185,198 185,220 Z m -15,0 q 0,-29 20.5,-49.5 Q 211,150 240,150 q 29,0 49.5,20.5 Q 310,191 310,220 310,249 289.5,269.5 269,290 240,290 211,290 190.5,269.5 170,249 170,220 Z m 55,0 q 0,-6 4.5,-10.5 4.5,-4.5 10.5,-4.5 6,0 10.5,4.5 4.5,4.5 4.5,10.5 0,6 -4.5,10.5 -4.5,4.5 -10.5,4.5 -6,0 -10.5,-4.5 Q 225,226 225,220 Z m 10,0 q 0,5 5,5 5,0 5,-5 0,-5 -5,-5 -5,0 -5,5 z m 127,-10 q 10,2 13,10 0,6 2.5,11 2.5,5 3.5,11 l -6,8 h -9 q -11,-13 -11,-30 v -4 z m 46,34 7,1 6,8 -3,8 q -8,4 -18,4 -10,0 -18,-4 l -3,-8 6,-8 7,-1 q 2,1 8,1 6,0 8,-1 z m 11,-2 q 1,-6 3.5,-11 2.5,-5 2.5,-11 l 4,-7 9,-3 7,6 v 4 q 0,17 -11,30 h -9 z m -26,-46 q -8,3 -14,10 l -6,3 -9,-3 -3,-9 q 12,-17 29,-21 l 8,5 v 10 z m -48,24 q 0,22 16.5,38.5 Q 378,275 400,275 422,275 438.5,258.5 455,242 455,220 455,198 438.5,181.5 422,165 400,165 378,165 361.5,181.5 345,198 345,220 Z m -15,0 q 0,-29 20.5,-49.5 Q 371,150 400,150 q 29,0 49.5,20.5 Q 470,191 470,220 470,249 449.5,269.5 429,290 400,290 371,290 350.5,269.5 330,249 330,220 Z m 55,0 q 0,-6 4.5,-10.5 4.5,-4.5 10.5,-4.5 6,0 10.5,4.5 4.5,4.5 4.5,10.5 0,6 -4.5,10.5 -4.5,4.5 -10.5,4.5 -6,0 -10.5,-4.5 Q 385,226 385,220 Z m 10,0 q 0,5 5,5 5,0 5,-5 0,-5 -5,-5 -5,0 -5,5 z M 202,50 q 10,2 13,10 0,6 2.5,11 2.5,5 3.5,11 l -6,8 h -9 Q 195,77 195,60 v -4 z m 46,34 7,1 6,8 -3,8 q -8,4 -18,4 -10,0 -18,-4 l -3,-8 6,-8 7,-1 q 2,1 8,1 6,0 8,-1 z m 11,-2 q 1,-6 3.5,-11 2.5,-5 2.5,-11 l 4,-7 9,-3 7,6 v 4 q 0,17 -11,30 h -9 z M 233,36 q -8,3 -14,10 l -6,3 -9,-3 -3,-9 q 12,-17 29,-21 l 8,5 v 10 z m -48,24 q 0,22 16.5,38.5 Q 218,115 240,115 262,115 278.5,98.5 295,82 295,60 295,38 278.5,21.5 262,5 240,5 218,5 201.5,21.5 185,38 185,60 Z m -15,0 Q 170,31 190.5,10.5 211,-10 240,-10 269,-10 289.5,10.5 310,31 310,60 310,89 289.5,109.5 269,130 240,130 211,130 190.5,109.5 170,89 170,60 Z m 55,0 q 0,-6 4.5,-10.5 Q 234,45 240,45 q 6,0 10.5,4.5 4.5,4.5 4.5,10.5 0,6 -4.5,10.5 Q 246,75 240,75 234,75 229.5,70.5 225,66 225,60 Z m 10,0 q 0,5 5,5 5,0 5,-5 0,-5 -5,-5 -5,0 -5,5 z M 362,50 q 10,2 13,10 0,6 2.5,11 2.5,5 3.5,11 l -6,8 h -9 Q 355,77 355,60 v -4 z m 46,34 7,1 6,8 -3,8 q -8,4 -18,4 -10,0 -18,-4 l -3,-8 6,-8 7,-1 q 2,1 8,1 6,0 8,-1 z m 11,-2 q 1,-6 3.5,-11 2.5,-5 2.5,-11 l 4,-7 9,-3 7,6 v 4 q 0,17 -11,30 h -9 z M 393,36 q -8,3 -14,10 l -6,3 -9,-3 -3,-9 q 12,-17 29,-21 l 8,5 v 10 z m -48,24 q 0,22 16.5,38.5 Q 378,115 400,115 422,115 438.5,98.5 455,82 455,60 455,38 438.5,21.5 422,5 400,5 378,5 361.5,21.5 345,38 345,60 Z m -15,0 Q 330,31 350.5,10.5 371,-10 400,-10 429,-10 449.5,10.5 470,31 470,60 470,89 449.5,109.5 429,130 400,130 371,130 350.5,109.5 330,89 330,60 Z m 55,0 q 0,-6 4.5,-10.5 Q 394,45 400,45 q 6,0 10.5,4.5 4.5,4.5 4.5,10.5 0,6 -4.5,10.5 Q 406,75 400,75 394,75 389.5,70.5 385,66 385,60 Z m 10,0 q 0,5 5,5 5,0 5,-5 0,-5 -5,-5 -5,0 -5,5 z M 155,540 q 0,35 25,60 25,25 60,25 27,0 49,-15.5 22,-15.5 31,-40.5 9,25 31,40.5 22,15.5 49,15.5 35,0 60,-25 25,-25 25,-60 0,-27 -15.5,-49 Q 454,469 429,460 454,451 469.5,429 485,407 485,380 485,353 469.5,331 454,309 429,300 454,291 469.5,269 485,247 485,220 485,193 469.5,171 454,149 429,140 454,131 469.5,109 485,87 485,60 485,25 460,0 435,-25 400,-25 373,-25 351,-9.5 329,6 320,31 311,6 289,-9.5 267,-25 240,-25 q -35,0 -60,25 -25,25 -25,60 0,27 15.5,49 15.5,22 40.5,31 -25,9 -40.5,31 -15.5,22 -15.5,49 0,27 15.5,49 15.5,22 40.5,31 -25,9 -40.5,31 -15.5,22 -15.5,49 0,27 15.5,49 15.5,22 40.5,31 -25,9 -40.5,31 Q 155,513 155,540 Z M 371,300 q -37,14 -51,51 -14,-37 -51,-51 37,-14 51,-51 14,37 51,51 z"
     style="fill:#000099;stroke:none;stroke-opacity:1;fill-opacity:1"
     id="path2" />
</svg>
